src/icons/hds/ui/question-circle.svg

<svg xmlns="http://www.w3.org/2000/svg" width="24" height="24" viewBox="0 0 24 24">
  <g fill="none" fill-rule="evenodd">
    <rect width="24" height="24"/>
    <path fill="currentColor" d="M12,2 C17.5228475,2 22,6.4771525 22,12 C22,17.5228475 17.5228475,22 12,22 C6.4771525,22 2,17.5228475 2,12 C2,6.4771525 6.4771525,2 12,2 Z M12,4 C7.581722,4 4,7.581722 4,12 C4,16.418278 7.581722,20 12,20 C16.418278,20 20,16.418278 20,12 C20,7.581722 16.418278,4 12,4 Z M13,16 L13,18 L11,18 L11,16 L13,16 Z M12.0436666,5.75 C14.0342698,5.75 15.7172813,7.29463804 15.7172813,9.4236147 C15.7172813,10.7805773 15.2461461,11.4889681 14.160958,12.3060246 L13.9186951,12.4844002 C13.1752868,13.0294825 12.9556121,13.3359034 12.9385965,14.1419671 L12.9375,14.25 L10.9375,14.25 C10.9375,12.6745767 11.4591297,11.8377931 12.6143192,10.9622473 L12.8617612,10.7796271 C13.5684825,10.2628161 13.7172813,10.053863 13.7172813,9.4236147 C13.7172813,8.43933936 12.9661887,7.75 12.0436666,7.75 C11.1906565,7.75 10.4785101,8.34077372 10.3815862,9.20834909 L10.3733727,9.3058695 L8.37662729,9.19181821 C8.49191238,7.1734721 10.1344277,5.75 12.0436666,5.75 Z"/>
  </g>
</svg>

<svg viewBox="0 0 24 24" role="img" xmlns="http://www.w3.org/2000/svg"><g fill="none" fill-rule="evenodd"><path d="M0 0h24v24H0z"/><path d="M12 2c5.523 0 10 4.477 10 10s-4.477 10-10 10S2 17.523 2 12 6.477 2 12 2zm0 2a8 8 0 100 16 8 8 0 000-16zm1 12v2h-2v-2h2zm-.956-10.25c1.99 0 3.673 1.545 3.673 3.674 0 1.357-.47 2.065-1.556 2.882l-.242.178c-.744.545-.963.852-.98 1.658l-.002.108h-2c0-1.575.522-2.412 1.677-3.288l.248-.182c.706-.517.855-.726.855-1.356 0-.985-.75-1.674-1.673-1.674-.853 0-1.565.59-1.662 1.458l-.009.098-1.996-.114c.115-2.019 1.757-3.442 3.667-3.442z" fill="currentColor"/></g></svg>
